X: 111
Q: "slow"
M: 3/4
L: 1/8
K: D
V: 1
|:\
d3 BA=c | {c}TB3 AGB | A2 GF TG(F/E/) | D6 |\
|:\
d2 (d/e/f) Ted | cBcd Je2 | A2 (AB/=c/) (TBA) | GABc d2 |\
|:\
V: 2 clef=bass middle=d
|:\
d'2 d2 "b5"f2 | g2 G2 g2 | "6"f2 "6;5"g2 "7"a2 | d2 f2 a2 | d'2 d2 "6"f2 |g4 "6"G2 |
"6"F2 "6;5"G2 "7"A2 | D6 :|\
|:\
"6"f2 b2 "6"g2 | a2 A2 "6"g2 | "6 b5"f4 d2 | g4 z2 | d4 d2 |
"6"g4 "5"g2 | "6;4"a4 "5;3"A2 | d6 :|\
|:\
d2 "6"f2 d2 | "6"g4 "5"g2 | "6"f2 "6;5"g2 "7"a2 | d6 :|

